X: 1
T: Fingal's Cave
T: Cuilfhionn
T: Fingal's Weeping
D: Old Blind Dogs, Fit?
Z: Nigel Gatherer
M: C|
L: 1/8
K: Ador
E/G/ |\
A2 B/A/G/A/ | BA Ae/d/ | BA/G/ ed/B/ | d>G  GE/G/ | A2 B/A/G/A/ | BA Ae/d/ |
BA/G/ ed/B/ | eA  A :| B/d/ | ed/e/ gf/g/ | ae/a/ ge/a/ | ed/e/ ge/g/ | e/d/B/A/ GB/d/ |
ed/e/ gf/g/ | ae/a/ ge/a/ | ge/a/ g/e/d/B/ | eA  AB/d/ |[| ed/e/ gf/g/ | ae/a/ ge/a/ |
ed/e/ ge/g/ | e/d/B/A/ GA/B/ | dc/d/ ed/e/ | gf/g/ ae/a/ | ge/a/ g/e/d/B/ | eA A |]

%%sep 1 1 500

